X:1
T:Title
L:1/8
M:6/8
K:Ab
V:1 treble nm="Grand Piano"
V:1
 z2[Q:1/4=140] C C2 C | A3 G2 =E | G6 | F6- | F2 C C2 C | D3 C2 B, | D6- | D2 B, B,2 C | D3 C2 B, | %9
 G6 | G6- | G2 B A2 G | F2 =E F2 G | F6- | F2 C C2 C | A3 G2 =E | G6 | F6- | F2 C C2 C | D3 C2 B, | %20
 D6- | D2 B, B,2 C | D3 C2 B, | G6 | G6- | G2 B A2 G | F2 =E F2 G | F6 | z2 F F2 F | F3 G2 F | %30
 F3 =E3- | E3- E2 G | G2 G G3 | A2 G G3 | F6- | F2 A A2 A | A3 B2 A | c6 | c6- | c2 c B2 A | %40
 G3 F2 =E | G6 | F6- | F2 c c2 c | c3 d2 c | c3 B3- | B3- B2 B | B2 B B3 | c2 B B3 | A6- | %50
 A2 A A2 A | A3 B2 A | c6 | c6- | c2 c B2 A | G3 F2 =E | G6 | F6 |] %58

